X:1
T:Vox in Rama
T:Vox in Rama
T:Mikolaj Zielinski
T:©2009 Paul R Marchesano May be freely copied for nonprofit use
T:©2009 Paul R Marchesano May be freely copied for nonprofit use
T:©2009 Paul R Marchesano May be freely copied for nonprofit use
T:©2009 Paul R Marchesano May be freely copied for nonprofit use
T:©2009 Paul R Marchesano May be freely copied for nonprofit use
C:Mikolaj Zielinski
Z:©2009 Paul R Marchesano May be freely copied for nonprofit use
%%score [ 1 2 3 4 ]
L:1/8
Q:1/4=96
M:4/4
K:Fmin
V:1 treble nm="Soprano" snm="S"
V:2 treble nm="Alto" snm="A"
V:3 treble-8 nm="Tenor" snm="T"
V:4 bass nm="Bass" snm="B"
V:1
 c6 F2 | A4 G4 | z8 | c6 G2 | B4 B2 A2 | G4 F3 G | A2 GF G4 | z4 z2 c2- | c2 F2 A4 | %9
w: Vox in|Ra- ma||Vox in|Ra- ma in|Ra- * *|* * * ma|Vox|_ in Ra-|
 G2 A3 G/F/ G2 | A2 c2 B2 B2 | c2 e2 d2 B2 | c2 c2 B4 | B2 A2 A4- | A2 G2 _G4 | F8 | z4 z2 f2 | %17
w: ma in _ _ Ra-|ma au- di- ta|est, au- di- ta|est, plo- ra-|tus et u-|* lu- la-|tus|plo-|
 e4 =d2 _d2 | c4 B2 c2- | cB/A/ B2 c4 | z4 z2 B2- | B2 A4 _G2 | F2 d4 c2 | B2 A2 G2 B2- | %24
w: ra- tus et|u- lu- la-|* * * * tus|Ra-|* chel plo-|rans Ra- chel|plo- * rans fi-|
 BB B2 c4 | F2 d3 d c2- | c2 B3 =A/G/ AG/A/ | B4 F4 | z2 F2 B3 B | =A2 B3 c dB | c2 c2 B4 | B4 z4 | %32
w: * li- os su-|os, fi- li- os|_ su- * * * * *|* os,|et no- lu-|it con- * * *|* so- la-|ri,|
 z2 B2 e3 e | =d2 e3 _d cB/A/ | B2 c2 c2 BA | BA GF/E/ F2 z2 | z4 z2 c2 | f3 f e2 c2- | cB A2 G4 | %39
w: et no- lu-|it con- * * * *|* so- la- * *|* * * * * ri,|et|no- lu- it con-|* so- la- *|
 A2 c4 A2 | A4 F2 d2- | d2 cB AB c2- | c2 B=A BF f2- | fedc d4 | c8 |] %45
w: ri, qui- a|non sunt, qui-|* * * * * a|_ _ _ _ _ non|_ _ _ _ _|sunt.|
V:2
 z8 | z8 | c6 F2 | A4 G4- | G2 F2 =E2 F2- | F=E/=D/ E2 F4 | z4 z2 B2- | B2 F2 A2 G2 | A3 B cA d2- | %9
w: ||Vox in|Ra- ma|_ _ _ _||Vox|_ in Ra- *|ma _ _ _ in|
 dc cB/A/ B2 B2 | c2 A A2 G/F/ G2 | A2 c2 B A2 G | A2 A2 G4 | F6 E2 | E4 =D2 E2- | E2 D4 CB, | %16
w: _ _ _ _ _ _ Ra-|ma au- di- * * ta|est, au- di- * ta|est, plo- ra-|tus et|u- lu- la-||
 C2 B,3 F, A,B, | C2 c2 F2 B2- | B2 A2 G2 G2 | F3 G A2 GF | G2 F2 z2 E2- | E2 =D2 E4 | F2 B4 A2 | %23
w: * tus _ _ _|_ plo- ra- tus|_ et u- lu-|la- * * * *|* tus Ra-|* chel plo-|rans Ra- chel|
 F4 E2 E2- | EE F2 E4 | D2 F3 F F2 | F8 | D2 B,2 D3 D | C2 D3 E FD | E2 D2 F4 | F4 z2 B,2 | %31
w: plo- rans fi-|* li- os su-|os, fi- li- os|su-|os, et no- lu-|it con- * * *|* so- la-|ri, et|
 E3 E =D2 EF | _GE F2 E2 C2 | F2 z2 z4 | z2 E2 A3 A | G2 B3 A G2 | A2 GF G2 F2 | A2 B2 c2 A2- | %38
w: no- lu- it con- *|* * * so- la-|ri,|et no- lu-|it con- so- la-|* * * ri, et|no- lu- it con-|
 AG F3 =E/=D/ E2 | F2 A4 F2 | F4 F2 B2- | B2 AG FG A2 | F6 d2- | dcB=A BF B2- | B2 =AG A4 |] %45
w: * so- la- * * *|ri, qui- a|non sunt, qui-||a non|_ _ _ _ _ _ _|* * * sunt.|
V:3
 z8 | z8 | z4 f4- | f2 c2 e4- | e2 d2 c4- | c2 c2 FGAB | c=d e4 EF | GAB f2 =e/=d/ e2 | %8
w: ||Vox|_ in Ra-|* * ma|_ in Ra- * * *|||
 f2 d2 c2 f2 | B2 e3 d B2 | A2 z c d2 e2 | A4 z4 | z4 z2 e2 | d4 d2 c2 | _c4 B4 | B3 A/G/ FG A2 | %16
w: ma Vox in Ra-|ma in _ Ra-|ma au- di- ta|est,|plo-|ra- tus et|u- *|lu- * * * * *|
 G4 F3 E/F/ | G2 =A2 B4 | z2 f4 e2 | d4 c4- | c2 F2 G4 | A4 B4- | B2 f4 e2 | d2 c2 B2 G2- | %24
w: la- * * *|* * tus|Ra- chel|plo- rans|_ Ra- chel|plo- rans|_ Ra- chel|plo- * rans fi-|
 GG B3 =A/G/ A2 | B2 B3 B c2 | d4 c4 | B2 F2 B3 B | =A2 B3 c dB | c2 B4 B2- | B=A/G/ A2 B4 | z8 | %32
w: * li- os _ _ su-|os, fi- li- os|su- *|os, et no- lu-|it con- * * *|* so- la-|* * * * ri,||
 E2 B3 B =A2 | B2 B2 c4 | B2 z2 z2 A2 | e3 e =d2 e2 | c2 BA G2 A2 | F3 F G2 A2 | E2 F2 G2 c2 | %39
w: et no- lu- it|con- so- la-|ri, et|no- lu- it con-|so- la- * ri, et|no- lu- it _|con- * * so-|
 cBAG F2 c2- | c2 d2 d3 e | f6 f2 | d6 B2 | d3 e f4 | f8 |] %45
w: la- * * * ri, qui-|* a non _|_ sunt,|qui- a|non _ _|sunt.|
V:4
 z8 | z8 | z8 | z8 | z8 | z4 F,4- | F,2 C,2 E,4- | E,2 D,2 C,4 | z2 F,4 D,2 | E,8 | A,,4 z4 | %11
w: |||||Vox|_ in Ra-|* * ma|Vox in|Ra-|ma|
 z2 C,2 D,2 E,2 | A,,4 z4 | z8 | z8 | z4 z2 F,2 | E,4 =D,2 _D,2 | C,2 C,2 B,,4 | F,4 z4 | %19
w: au- di- ta|est,|||plo-|ra- tus et|u- lu- la-|tus|
 z4 z2 C,2- | C,2 =D,2 E,4 | F,4 E,4 | z2 B,,4 C,2 | D,4 E,2 E,2- | E,E, D,2 C,4 | %25
w: Ra-|* chel plo-|* rans|Ra- chel|plo- rans fi-|* li- os su-|
 B,,2 B,,3 B,, =A,,2 | B,,C, D,C,/B,,/ F,4 | B,,8 | z8 | z4 z2 B,,2 | F,3 F, =D,2 E,2- | %31
w: os, fi- li- os|su- * * * * *|os,||et|no- lu- it con-|
 E,F,_G,E, F,B,, E,2- | E,2 D,2 C,4 | B,,2 E,2 A,3 A, | G,2 A,2 F,2 F,2 | E,4 z2 C,2 | %36
w: |* so- la-|ri, et no- lu-|it con- so- la-|ri, et|
 F,3 F, =E,2 F,2 | D,4 C,4- | C,8 | F,,4 z2 F,2- | F,2 D,2 D,4 | B,,2 D,4 A,,2 | B,,8- | B,,8 | %44
w: no- lu- it con-|so- la-||ri, qui-|* a non|sunt, qui- a|non|_|
 F,8 |] %45
w: sunt.|

